icons/papirus/32x32/devices/media-floppy.svg

<?xml version="1.0" encoding="UTF-8" standalone="no"?>
<!-- Created with Inkscape (http://www.inkscape.org/) -->

<svg
   xmlns:dc="http://purl.org/dc/elements/1.1/"
   xmlns:cc="http://creativecommons.org/ns#"
   xmlns:rdf="http://www.w3.org/1999/02/22-rdf-syntax-ns#"
   xmlns:svg="http://www.w3.org/2000/svg"
   xmlns="http://www.w3.org/2000/svg"
   xmlns:sodipodi="http://sodipodi.sourceforge.net/DTD/sodipodi-0.dtd"
   xmlns:inkscape="http://www.inkscape.org/namespaces/inkscape"
   id="svg2817"
   height="32"
   width="32"
   version="1.0"
   inkscape:version="0.91 r"
   sodipodi:docname="media-floppy.svg">
  <defs
     id="defs19" />
  <sodipodi:namedview
     pagecolor="#ffffff"
     bordercolor="#666666"
     borderopacity="1"
     objecttolerance="10"
     gridtolerance="10"
     guidetolerance="10"
     inkscape:pageopacity="0"
     inkscape:pageshadow="2"
     inkscape:window-width="1600"
     inkscape:window-height="846"
     id="namedview17"
     showgrid="false"
     inkscape:zoom="12.239653"
     inkscape:cx="22.699809"
     inkscape:cy="16"
     inkscape:window-x="-5"
     inkscape:window-y="28"
     inkscape:window-maximized="1"
     inkscape:current-layer="svg2817" />
  <metadata
     id="metadata57">
    <rdf:RDF>
      <cc:Work
         rdf:about="">
        <dc:format>image/svg+xml</dc:format>
        <dc:type
           rdf:resource="http://purl.org/dc/dcmitype/StillImage" />
        <dc:title />
      </cc:Work>
    </rdf:RDF>
  </metadata>
  <rect
     id="rect4203"
     ry="1.3"
     rx="1.3"
     transform="matrix(0,-1,-1,0,0,0)"
     height="26"
     width="26"
     y="-29"
     x="-29"
     style="fill:#858a89;fill-opacity:1" />
  <path
     style="opacity:0.1;fill:#ffffff"
     inkscape:connector-curvature="0"
     id="rect4235"
     d="M 4.3008,3 C 3.5806,3 3,3.5806 3,4.3008 l 0,1 C 3,4.5806 3.5806,4 4.3008,4 l 23.398,0 c 0.72,0 1.301,0.5806 1.301,1.3008 l 0,-1 C 28.9998,3.5806 28.4188,3 27.6988,3 L 4.3008,3 Z" />
  <path
     style="opacity:0.3"
     inkscape:connector-curvature="0"
     id="rect4184"
     d="m 3,26.699 0,1 C 3,28.419 3.5806,29 4.3008,29 l 23.398,0 c 0.72,0 1.301,-0.581 1.301,-1.301 l 0,-1 c 0,0.72 -0.581,1.301 -1.301,1.301 l -23.398,0 c -0.7204,0 -1.301,-0.581 -1.301,-1.301 z" />
  <path
     id="path4192"
     d="M 10.183594,4 C 10.069527,4.1966675 10,4.4213955 10,4.6660156 l 0,8.0000004 C 10,13.404683 10.595317,14 11.333984,14 l 13.332032,0 C 25.404683,14 26,13.404683 26,12.666016 L 26,4.6660156 C 26,4.4213955 25.93047,4.1966675 25.816406,4 L 10.183594,4 Z m 9.53125,2 3.570312,0 C 23.68087,6 24,6.2966822 24,6.6660156 l 0,4.6679684 C 24,11.703317 23.68087,12 23.285156,12 l -3.570312,0 C 19.319129,12 19,11.703317 19,11.333984 L 19,6.6660156 C 19,6.2966822 19.319129,6 19.714844,6 Z"
     style="opacity:0.2;fill:#000000;fill-opacity:1"
     inkscape:connector-curvature="0" />
  <path
     inkscape:connector-curvature="0"
     style="fill:#d4d4d4;fill-opacity:1"
     d="M 10.183594,3 C 10.069527,3.1966675 10,3.4213955 10,3.6660156 l 0,8.0000004 C 10,12.404683 10.595317,13 11.333984,13 l 13.332032,0 C 25.404683,13 26,12.404683 26,11.666016 L 26,3.6660156 C 26,3.4213955 25.93047,3.1966675 25.816406,3 L 10.183594,3 Z m 9.53125,2 3.570312,0 C 23.68087,5 24,5.2966822 24,5.6660156 l 0,4.6679684 C 24,10.703317 23.68087,11 23.285156,11 l -3.570312,0 C 19.319129,11 19,10.703317 19,10.333984 L 19,5.6660156 C 19,5.2966822 19.319129,5 19.714844,5 Z"
     id="path4189" />
  <rect
     id="rect4186-0"
     rx="1.25"
     ry="1.3333334"
     height="12"
     width="20"
     y="15"
     x="6"
     style="fill:#ffffff;fill-opacity:1" />
  <path
     style="fill:#ffae3f;fill-opacity:1"
     d="m 26,24 0,1.666667 C 26,26.405334 25.442499,27 24.749999,27 L 7.2499999,27 C 6.5574999,27 6,26.405334 6,25.666667 L 6,24 Z"
     id="rect4155"
     inkscape:connector-curvature="0"
     sodipodi:nodetypes="csssscc" />
</svg>

<?xml version="1.0" encoding="UTF-8" standalone="no"?>
<!-- Created with Inkscape (http://www.inkscape.org/) -->
<svg id="svg2817" xmlns:rdf="http://www.w3.org/1999/02/22-rdf-syntax-ns#" xmlns="http://www.w3.org/2000/svg" height="32" width="32" version="1.0" xmlns:cc="http://creativecommons.org/ns#" xmlns:dc="http://purl.org/dc/elements/1.1/">
 <metadata id="metadata57">
  <rdf:RDF>
   <cc:Work rdf:about="">
    <dc:format>image/svg+xml</dc:format>
    <dc:type rdf:resource="http://purl.org/dc/dcmitype/StillImage"/>
    <dc:title/>
   </cc:Work>
  </rdf:RDF>
 </metadata>
 <rect id="rect4203" ry="1.3" rx="1.3" transform="matrix(0,-1,-1,0,0,0)" height="26" width="26" y="-29" x="-29" fill="#858a89"/>
 <path id="rect4235" opacity=".1" d="m4.3008 3c-0.7202 0-1.3008 0.5806-1.3008 1.3008v1c0-0.7202 0.5806-1.3008 1.3008-1.3008h23.398c0.72 0 1.301 0.5806 1.301 1.3008v-1c0-0.7202-0.581-1.3008-1.301-1.3008h-23.398z" fill="#fff"/>
 <path id="rect4184" opacity=".3" d="m3 26.699v1c0 0.72 0.5806 1.301 1.3008 1.301h23.398c0.72 0 1.301-0.581 1.301-1.301v-1c0 0.72-0.581 1.301-1.301 1.301h-23.398c-0.7204 0-1.301-0.581-1.301-1.301z"/>
 <path id="path4192" opacity=".2" d="m10.184 4c-0.114 0.1967-0.184 0.4214-0.184 0.666v8c0 0.739 0.595 1.334 1.334 1.334h13.332c0.739 0 1.334-0.595 1.334-1.334v-8c0-0.2446-0.07-0.4693-0.184-0.666h-15.632zm9.5312 2h3.5703c0.396 0 0.715 0.2967 0.715 0.666v4.668c0 0.369-0.319 0.666-0.715 0.666h-3.5703c-0.396 0-0.715-0.297-0.715-0.666v-4.668c0-0.3693 0.319-0.666 0.715-0.666z"/>
 <path id="path4189" d="m10.184 3c-0.114 0.1967-0.184 0.4214-0.184 0.666v8c0 0.739 0.595 1.334 1.334 1.334h13.332c0.739 0 1.334-0.595 1.334-1.334v-8c0-0.2446-0.07-0.4693-0.184-0.666h-15.632zm9.5312 2h3.5703c0.396 0 0.715 0.2967 0.715 0.666v4.668c0 0.369-0.319 0.666-0.715 0.666h-3.5703c-0.396 0-0.715-0.297-0.715-0.666v-4.668c0-0.3693 0.319-0.666 0.715-0.666z" fill="#d4d4d4"/>
 <rect id="rect4186-0" rx="1.25" ry="1.3333" height="12" width="20" y="15" x="6" fill="#fff"/>
 <path id="rect4155" d="m26 24v1.6667c0 0.738-0.558 1.333-1.25 1.333h-17.5c-0.6925 0-1.25-0.595-1.25-1.333v-1.667z" fill="#ffae3f"/>
</svg>
